src/assets/desktop/icon-sun.svg

<svg width="24" height="24" viewBox="0 0 24 24" fill="none" xmlns="http://www.w3.org/2000/svg">
<g clip-path="url(#clip0_2_37)">
<path d="M11.7809 19.4165C12.374 19.4165 12.863 19.8656 12.9256 20.4425L12.9323 20.568V22.4097C12.9323 23.0463 12.4169 23.5617 11.7809 23.5617C11.1873 23.5617 10.6987 23.1127 10.6361 22.5353L10.6294 22.4097V20.568C10.6294 19.932 11.1449 19.4165 11.7809 19.4165ZM6.38139 17.1809C6.79901 17.5975 6.82884 18.2562 6.47088 18.7078L6.38139 18.8082L5.07861 20.1115C4.62939 20.5607 3.9 20.5607 3.45026 20.1115C3.03265 19.6943 3.00327 19.0352 3.36087 18.5835L3.45026 18.4831L4.75304 17.1809C5.20278 16.7306 5.93165 16.7306 6.38139 17.1809ZM18.8082 17.1809L20.111 18.4837C20.5607 18.9323 20.5607 19.6623 20.111 20.1115C19.6612 20.5607 18.9323 20.5607 18.4826 20.1115L17.1798 18.8087C16.7301 18.359 16.7301 17.6301 17.1798 17.1809C17.6296 16.7317 18.359 16.7317 18.8082 17.1809ZM11.7809 5.87948C15.0344 5.87948 17.6823 8.52678 17.6823 11.7814C17.6823 15.036 15.0344 17.6833 11.7809 17.6833C8.52678 17.6833 5.87948 15.0355 5.87948 11.7814C5.87948 8.5273 8.52678 5.87948 11.7809 5.87948ZM22.4103 10.6294C23.0463 10.6294 23.5617 11.1449 23.5617 11.7809C23.5617 12.4169 23.0463 12.9318 22.4103 12.9318H20.568C19.932 12.9318 19.4165 12.4169 19.4165 11.7809C19.4165 11.1449 19.932 10.6294 20.568 10.6294H22.4103ZM2.99322 10.6294C3.62922 10.6294 4.1447 11.1449 4.1447 11.7809C4.1447 12.3745 3.69566 12.8626 3.11912 12.9251L2.99374 12.9318H1.15148C0.515478 12.9318 0 12.4169 0 11.7809C0 11.1873 0.449039 10.6987 1.026 10.6361L1.15148 10.6294H2.99322ZM4.97817 3.36129L5.07861 3.45078L6.38139 4.75304C6.83113 5.20278 6.83113 5.93165 6.38139 6.38139C5.96378 6.79949 5.30548 6.82936 4.85349 6.47098L4.75304 6.38139L3.45026 5.07861C3.00052 4.62939 3.00052 3.9 3.45026 3.45078C3.86788 3.03317 4.52617 3.00334 4.97817 3.36129ZM20.111 3.45026C20.5607 3.9 20.5607 4.62939 20.111 5.07861L18.8082 6.38139C18.359 6.83113 17.6301 6.83113 17.1798 6.38139C16.7306 5.93165 16.7306 5.20278 17.1798 4.75304L18.4826 3.45026C18.9318 3.00104 19.6612 3.00104 20.111 3.45026ZM11.7809 0C12.4169 0 12.9323 0.515478 12.9323 1.15148V2.99374C12.9323 3.62922 12.4163 4.1447 11.7809 4.1447C11.1449 4.1447 10.6294 3.62922 10.6294 2.99374V1.15148C10.6294 0.515478 11.1449 0 11.7809 0Z" fill="white"/>
</g>
<defs>
<clipPath id="clip0_2_37">
<rect width="24" height="24" fill="white"/>
</clipPath>
</defs>
</svg>

<svg width="24" height="24" xmlns="http://www.w3.org/2000/svg"><path d="M11.78 19.417c.594 0 1.083.449 1.146 1.026l.006.125v1.842a1.152 1.152 0 01-2.296.125l-.007-.125v-1.842c0-.636.516-1.151 1.152-1.151zM6.382 17.18a1.15 1.15 0 01.09 1.527l-.09.1-1.302 1.303a1.152 1.152 0 01-1.718-1.528l.09-.1 1.302-1.302a1.15 1.15 0 011.628 0zm12.427 0l1.303 1.303a1.15 1.15 0 11-1.628 1.627L17.18 18.81a1.15 1.15 0 111.628-1.628zM11.781 5.879a5.908 5.908 0 015.901 5.902 5.908 5.908 0 01-5.901 5.902 5.908 5.908 0 01-5.902-5.902 5.908 5.908 0 015.902-5.902zm10.63 4.75a1.151 1.151 0 110 2.303h-1.843a1.151 1.151 0 110-2.303h1.842zm-19.418 0a1.151 1.151 0 01.126 2.296l-.125.007H1.15a1.151 1.151 0 01-.125-2.296l.125-.007h1.842zm1.985-7.268l.1.09 1.303 1.302a1.151 1.151 0 01-1.528 1.718l-.1-.09L3.45 5.08A1.15 1.15 0 014.978 3.36zm15.133.09c.45.449.45 1.178 0 1.628L18.808 6.38a1.151 1.151 0 11-1.628-1.628l1.303-1.303c.449-.449 1.178-.449 1.628 0zM11.781 0c.636 0 1.151.515 1.151 1.151v1.843a1.152 1.152 0 01-2.303 0V1.15C10.63.515 11.145 0 11.781 0z" fill="#FFF" fill-rule="nonzero"/></svg>
